images/sale__5.svg

<svg width="80" height="80" viewBox="0 0 80 80" fill="none" xmlns="http://www.w3.org/2000/svg">
<circle cx="40" cy="40" r="40" fill="white"/>
<path d="M53.6754 39.1212C53.6754 39.0936 53.6753 39.0382 53.7029 39.0105L57.0081 21.1591L49.8743 17.2014L50.6456 18.2254C50.7833 18.4191 50.7557 18.7236 50.5629 18.8897C50.5354 18.9173 50.4803 18.945 50.4528 18.945L49.5163 19.3325L51.0587 20.1074C51.2515 20.2181 51.3617 20.4949 51.2515 20.744V20.7717L42.8783 36.9625C42.8783 36.9625 42.8783 36.9901 42.8507 36.9901L39.2701 43.7432V55.6995C39.2701 58.5779 39.2976 60.8197 39.4078 62.4526C39.518 64.0578 39.7934 65.1649 40.179 65.9399L40.2066 65.9675C41.143 67.5728 43.2639 67.5728 47.5056 67.5174C48.2768 67.5174 49.048 67.4897 49.5438 67.4897H53.5927V53.8175C53.5652 53.8175 53.5652 53.8175 53.5376 53.8175H45.5225C45.247 53.8175 45.0267 53.6238 45.0267 53.3193C45.0267 53.0426 45.2195 52.8212 45.5225 52.8212H53.5376C53.5652 52.8212 53.5652 52.8212 53.5927 52.8212L53.6754 39.1212ZM40.6197 46.7877C41.0053 46.7877 41.3358 46.4832 41.3358 46.0681C41.3358 45.6806 41.0329 45.3485 40.6197 45.3485C40.2341 45.3485 39.9036 45.6529 39.9036 46.0681C39.876 46.4555 40.2341 46.7877 40.6197 46.7877ZM40.6197 54.122C41.0053 54.122 41.3358 53.8175 41.3358 53.4024C41.3358 52.9595 41.0329 52.6828 40.6197 52.6828C40.2341 52.6828 39.9036 52.9872 39.9036 53.4024C39.876 53.8175 40.2341 54.122 40.6197 54.122ZM40.6197 61.5116C41.0053 61.5116 41.3358 61.2072 41.3358 60.792C41.3358 60.4045 41.0329 60.0724 40.6197 60.0724C40.2341 60.0724 39.9036 60.3769 39.9036 60.792C39.9036 61.2072 40.2341 61.5116 40.6197 61.5116ZM61.8007 61.567C61.4151 61.567 61.0846 61.2625 61.0846 60.8474C61.0846 60.4322 61.3875 60.1278 61.8007 60.1278C62.2138 60.1278 62.5168 60.4322 62.5168 60.8474C62.5719 61.2072 62.2414 61.567 61.8007 61.567ZM62.021 63.3936C61.6354 63.3936 61.3049 63.0892 61.3049 62.674C61.3049 62.2865 61.6079 61.9544 62.021 61.9544C62.4067 61.9544 62.7372 62.2589 62.7372 62.674C62.7372 63.0892 62.4067 63.3936 62.021 63.3936ZM62.2414 65.3033C61.8558 65.3033 61.5253 64.9989 61.5253 64.5837C61.5253 64.1962 61.8282 63.8641 62.2414 63.8641C62.6545 63.8641 62.9575 64.1686 62.9575 64.5837C62.9575 64.9712 62.6545 65.3033 62.2414 65.3033ZM18.3645 61.567C18.7501 61.567 19.0807 61.2625 19.0807 60.8474C19.0807 60.4322 18.7777 60.1278 18.3645 60.1278C17.9789 60.1278 17.6484 60.4322 17.6484 60.8474C17.5933 61.2072 17.9514 61.567 18.3645 61.567ZM18.1442 63.3936C18.5298 63.3936 18.8603 63.0892 18.8603 62.674C18.8603 62.2865 18.5573 61.9544 18.1442 61.9544C17.7586 61.9544 17.428 62.2589 17.428 62.674C17.428 63.0892 17.731 63.3936 18.1442 63.3936ZM17.9514 65.3033C18.337 65.3033 18.6675 64.9989 18.6675 64.5837C18.6675 64.1962 18.3645 63.8641 17.9514 63.8641C17.5658 63.8641 17.2352 64.1686 17.2352 64.5837C17.2352 64.9712 17.5658 65.3033 17.9514 65.3033ZM54.6394 44.7949L56.595 66.2443L63.6186 65.8568L60.1756 29.047L60.1481 28.7702C59.8726 26.0856 59.6523 23.4286 57.862 21.8234L54.6118 39.1766L54.6394 44.7949ZM57.7518 20.5226C57.7793 20.5226 57.7793 20.5502 57.8069 20.5502C60.5061 22.2939 60.8091 25.4767 61.057 28.6041L61.0846 28.8809L64.555 66.2166C64.555 66.2443 64.555 66.2443 64.555 66.2443C64.5826 66.5211 64.3622 66.7425 64.1143 66.7425L56.1267 67.2407C55.8513 67.2683 55.6309 67.1023 55.6309 66.7978L54.6118 55.229V68.0156C54.6118 68.2924 54.419 68.5138 54.116 68.5138H49.5714C48.6073 68.5138 48.0565 68.5138 47.5331 68.5138C43.3741 68.5415 41.143 68.5415 39.8485 67.0746C38.6366 68.6798 36.7085 68.6245 33.2105 68.5415C32.3842 68.5138 31.5028 68.5138 30.346 68.5138H25.939C25.6636 68.5138 25.4432 68.32 25.4432 68.0156V55.229L24.4241 66.7978C24.3966 67.0746 24.1487 67.2407 23.9283 67.2407L15.9407 66.7425C15.6653 66.7148 15.5 66.4657 15.5 66.2443V66.2166L18.998 28.9639L19.0256 28.6872C19.301 25.5044 19.604 22.3215 22.3308 20.6333C22.3583 20.5779 22.3859 20.5779 22.3859 20.5779L31.5854 15.5131L32.2189 14.6551C32.2465 14.6551 32.2465 14.6275 32.2465 14.6275C33.5135 13.1606 34.7805 12.358 36.075 11.9428C37.342 11.5554 38.5815 11.5 39.8209 11.5C39.876 11.5 39.9036 11.5 39.9587 11.5C40.0138 11.5 40.0688 11.5 40.1515 11.5C41.4185 11.5 42.6855 11.583 43.9249 11.9982C45.2746 12.441 46.514 13.2159 47.7535 14.6828L47.781 14.7105L48.4145 15.5685L57.7518 20.5226ZM34.147 52.9042C34.4224 52.9042 34.6428 53.0979 34.6428 53.4024C34.6428 53.6791 34.45 53.9005 34.147 53.9005H26.4348C26.4072 53.9005 26.4072 53.9005 26.3797 53.9005V67.5728H30.4011C31.3651 67.5728 32.3566 67.6004 33.2656 67.6004C36.5984 67.6835 38.3611 67.7112 39.2976 66.2443C38.912 65.3863 38.6366 64.1962 38.5264 62.5633C38.3887 60.8474 38.3887 58.6056 38.3887 55.6995V43.6879C38.3887 43.6325 38.4162 43.5495 38.4162 43.4941C38.6917 42.8299 38.9671 41.9719 39.2701 40.9479L37.2319 37.0455L28.8311 20.827C28.7209 20.6333 28.8035 20.3288 29.0239 20.1904L29.0514 20.1628L30.5663 19.3878L29.6298 18.9727C29.3819 18.8896 29.2993 18.5852 29.3819 18.3638C29.3819 18.3361 29.4095 18.3084 29.437 18.2808L30.2083 17.2567L23.0469 21.1868L26.3797 39.0382C26.3797 39.0659 26.3797 39.0936 26.3797 39.1212V52.9319C26.4072 52.9319 26.4072 52.9319 26.4348 52.9319L34.147 52.9042ZM25.4708 44.7949V39.2043L22.2206 21.8234C20.4578 23.4286 20.1824 26.0856 19.9345 28.7425L19.907 29.0193L16.464 65.8292L23.4876 66.2166L25.4708 44.7949ZM38.9671 38.2909C38.0306 35.0805 37.039 31.1227 36.2678 27.4417C35.3864 23.1795 34.7529 19.2771 34.7529 17.2291C34.7529 15.4854 35.2487 14.0186 36.1026 12.9669C36.1577 12.9115 36.1852 12.8562 36.2403 12.7731C35.0835 13.1606 33.9817 13.7972 32.9075 15.1256L30.5388 18.3638L31.8884 18.945C31.971 18.9727 32.0812 19.0557 32.1638 19.2218C32.274 19.4155 32.1914 19.7199 31.971 19.8583L29.9328 20.827L38.1132 36.5473L38.9671 38.2909ZM37.1768 27.2203C37.948 31.012 39.0222 35.1635 39.9862 38.457C40.7574 35.634 41.6664 32.2298 42.41 28.8809C43.4842 24.0375 44.3381 19.4709 44.3381 17.2291C44.3381 15.7345 43.9525 14.4614 43.1813 13.6311C42.4927 12.8562 41.4185 12.358 40.0413 12.358C38.6641 12.358 37.5348 12.8008 36.8738 13.6311C36.1026 14.4891 35.717 15.7345 35.717 17.2291C35.717 19.1941 36.3505 23.0688 37.1768 27.2203ZM47.0924 15.181C46.0733 13.9079 44.9165 13.2159 43.7872 12.8562C43.8148 12.9115 43.8699 12.9392 43.8974 12.9945C44.8339 14.0186 45.247 15.5131 45.247 17.2567C45.247 19.5816 44.3932 24.2589 43.2914 29.1577C42.5202 32.4789 41.6939 35.9108 40.8676 38.7338L41.9969 36.6857V36.658L50.1773 20.9377L48.1116 19.9137C48.0289 19.886 47.9187 19.803 47.9187 19.6369C47.8361 19.3602 47.9463 19.1387 48.1942 19.0004L49.5438 18.4191L47.0924 15.181Z" fill="#010066"/>
</svg>

<svg width="80" height="80" fill="none" xmlns="http://www.w3.org/2000/svg"><circle cx="40" cy="40" r="40" fill="#fff"/><path d="M53.675 39.121c0-.027 0-.083.028-.11l3.305-17.852-7.134-3.958.772 1.024a.513.513 0 0 1-.083.665.209.209 0 0 1-.11.055l-.937.387 1.543.775c.193.111.303.388.193.637v.028l-8.374 16.19s0 .028-.027.028l-3.58 6.753V55.7c0 2.879.027 5.12.137 6.754.11 1.605.385 2.712.771 3.487l.028.028c.936 1.605 3.057 1.605 7.299 1.55.77 0 1.542-.028 2.038-.028h4.049V53.818h-8.07a.478.478 0 0 1-.496-.499c0-.276.192-.498.495-.498h8.071l.082-13.7ZM40.62 46.788a.713.713 0 0 0 .716-.72.713.713 0 0 0-.716-.72.713.713 0 0 0-.716.72c-.028.388.33.72.716.72Zm0 7.334a.713.713 0 0 0 .716-.72c0-.443-.303-.72-.716-.72a.713.713 0 0 0-.716.72c-.028.416.33.72.716.72Zm0 7.39a.713.713 0 0 0 .716-.72.713.713 0 0 0-.716-.72.713.713 0 0 0-.716.72c0 .415.33.72.716.72Zm21.18.055a.713.713 0 0 1-.715-.72c0-.415.303-.72.716-.72s.716.305.716.72c.055.36-.276.72-.716.72Zm.221 1.827a.713.713 0 0 1-.716-.72c0-.388.303-.72.716-.72.386 0 .716.305.716.72s-.33.72-.716.72Zm.22 1.91a.713.713 0 0 1-.716-.72c0-.388.303-.72.716-.72s.717.305.717.72c0 .387-.303.72-.717.72Zm-43.877-3.737a.713.713 0 0 0 .717-.72.696.696 0 0 0-.716-.72.713.713 0 0 0-.717.72c-.055.36.303.72.716.72Zm-.22 1.827a.713.713 0 0 0 .716-.72.713.713 0 0 0-.716-.72.713.713 0 0 0-.716.72c0 .415.303.72.716.72Zm-.193 1.91a.713.713 0 0 0 .716-.72.713.713 0 0 0-.716-.72.713.713 0 0 0-.716.72c0 .387.33.72.716.72Zm36.688-20.51 1.956 21.45 7.024-.387-3.443-36.81-.028-.277c-.275-2.684-.496-5.341-2.286-6.947l-3.25 17.354.027 5.618Zm3.113-24.271c.027 0 .027.027.055.027 2.7 1.744 3.002 4.927 3.25 8.054l.028.277 3.47 37.336v.027a.451.451 0 0 1-.44.499l-7.988.498c-.276.027-.496-.139-.496-.443l-1.02-11.569v12.787a.478.478 0 0 1-.495.498h-6.583c-4.159.028-6.39.028-7.684-1.44-1.212 1.606-3.14 1.55-6.638 1.468-.827-.028-1.708-.028-2.865-.028h-4.407a.478.478 0 0 1-.496-.498V55.229l-1.019 11.569a.502.502 0 0 1-.496.443l-7.987-.498a.503.503 0 0 1-.441-.499v-.027l3.498-37.253.028-.277c.275-3.183.578-6.366 3.305-8.054.027-.055.055-.055.055-.055l9.2-5.065.633-.858c.027 0 .027-.027.027-.027 1.267-1.467 2.535-2.27 3.829-2.685 1.267-.388 2.506-.443 3.746-.443h.33c1.267 0 2.534.083 3.774.498 1.35.443 2.589 1.218 3.829 2.685l.027.027.633.858 9.338 4.955ZM34.147 52.904c.275 0 .496.194.496.498a.478.478 0 0 1-.496.498H26.38v13.673H30.4c.964 0 1.956.027 2.865.027 3.332.084 5.095.111 6.032-1.356-.386-.858-.661-2.048-.772-3.68-.137-1.717-.137-3.958-.137-6.864V43.688c0-.056.027-.139.027-.194.276-.664.551-1.522.854-2.546l-2.038-3.903-8.4-16.218c-.111-.194-.029-.498.192-.637l.027-.027 1.515-.775-.936-.415c-.248-.083-.33-.388-.248-.61 0-.027.027-.055.055-.082l.771-1.024-7.161 3.93 3.333 17.851v13.893h.055l7.712-.027Zm-8.676-8.11v-5.59l-3.25-17.38c-1.763 1.605-2.039 4.262-2.287 6.918l-.027.277-3.443 36.81 7.024.388 1.983-21.422Zm13.496-6.503a151.973 151.973 0 0 1-2.7-10.85c-.88-4.261-1.514-8.164-1.514-10.212 0-1.744.496-3.21 1.35-4.262.055-.056.082-.11.137-.194-1.157.388-2.258 1.024-3.333 2.353l-2.368 3.238 1.35.581c.082.028.192.11.275.277.11.194.027.498-.193.636l-2.038.969 8.18 15.72.854 1.744Zm-1.79-11.07c.771 3.791 1.845 7.942 2.81 11.236.77-2.823 1.68-6.227 2.423-9.576 1.074-4.843 1.928-9.41 1.928-11.652 0-1.494-.386-2.768-1.157-3.598-.688-.775-1.762-1.273-3.14-1.273-1.377 0-2.506.443-3.167 1.273-.771.858-1.157 2.104-1.157 3.598 0 1.965.633 5.84 1.46 9.991Zm9.915-12.04c-1.019-1.273-2.175-1.965-3.305-2.325.028.056.083.083.11.139.937 1.024 1.35 2.518 1.35 4.262 0 2.325-.854 7.002-1.956 11.9-.77 3.322-1.597 6.754-2.423 9.577l1.129-2.048v-.028l8.18-15.72-2.065-1.024a.281.281 0 0 1-.193-.277c-.083-.277.027-.498.275-.637l1.35-.58-2.452-3.239Z" fill="#010066"/></svg>
